X: 25858
T: Masurkka Ullan
R: mazurka
M: 3/4
K: Bminor
|:e/|f2 f>e d>c|B>c d2 F2|^A>B c2 F2|B>c d>e f2|
f>g f>e d<c|B>c d2 F2|^A>B c>e d<c|B2 B2- B3/2:|
c/4B/4|A>c e>g f>^e|f2 f2- f>g|a2 (3gag e2|f>g f>e d>B|
c>d e>g f>^e|f>e d<c B2|c>d c>B _B<G|F2 F2 F>^E|
F>_B c2 e2|d>e f2 f>g|a2 g2 (3efe|f>g f>e d2|
c>d (3efg f>e|f2 d>e f<g|f>e d>c B<_B|B2 B2- B3/2||

